X: 3
T: The Wren
O:trad. Brittany
R:Reel
M:C|
L:1/8
K:Bm
|:\
"Bm"B2 f2 f2 ef | "Em"g2 e2 edcd | "A"eAce efed |1,3 c2 c2 dcBA :|2,4 c2 B2 "Bm"BAFA ::\
"Bm"B3A Bcdc | B2 B2 "A"c3d |
"A"eAce efed | c2 c2 "(F#m)"dcBA |\
"G"B3A Bcdc | B2 B2 "A"c3d |[1,3 "A"eAce efed |[2,4 c2 B2 "Bm"B2 A2 :| y|["Trans."c2 B2 "Bm"B4 ||
P: The Wren lower octave:
|:\
B,2 F2 F2 EF | G2 E2 EDCD | EA,CE EFED |1,3 C2 C2 DCB,A, :|2,4 C2 B,2 B,A,B,A, ::\
B,3A, B,CDC | B,2 B,2 C3D |
EA,CE EFED | C2 C2 DCB,A, |\
B,3A, B,CDC | B,2 B,2 C3D |[1,3 EA,CE EFED |[2,4 C2 B,2 B,2 A,2 :| y|["Trans."C2 B,2 "Bm"B,4 ||

